X:1
T:I AM a Wild Young Irish Boy
M:6/8
L:1/8
K:D
 D2 E| F2 FE-D F| B2 B AAF| G/2 G3/2 F D2 C| D3 z2 A| A2 A F3/2 A/2 c|\
 d2 d c2 B| A A2 c2 B| A6| z2 zA-B c| d2 d e2 d| cB A3 F/2F/2| GG c3 B|\
 A3 z2 D| D3/2 D/2 D E2 F/2F/2| GA D2- D F/2F/2| G2 F D2 C| D6|

